X:1
T:You Must Be Redeemed
T:Lewis Edgar Jones, 1903
T:You Must Be Redeemed
T:Public Domain
T:Public Domain
C:Lewis Edgar Jones, 1903
Z:Public Domain
%%score ( 1 2 ) ( 3 4 )
L:1/8
M:4/4
K:Eb
V:1 treble 
V:2 treble 
V:3 bass 
V:4 bass 
V:1
 E[EF] | [EG]2 [EG]>[EF] [DF]EE[EG] | [EB]2 [Ec]2 [EB]3 E | [EG]2 [EG]>[DF] E2 [EG]>[EG] | %4
w: 1.~Is your|full of tri- al, do you seek|You must be re-|by the blood. From the chains|
w: 2.~Would you|on to glo- ry with a Sav-|You must be re-|by the blood. Would your soul|
w: 3.~Do you|for His par- don lest your soul|You must be re-|by the blood. For His grace|
 [DF]6 [EG][FA] | [GB]2 [GB]>[GB] [Ac][GB][EG][GB] | [ce]2 [Ac]2 [GB]3 E | %7
w: have bound you|would you find re- lease? You must|be re- deemed by|
w: in vic- t’ry|o- ver doubt and fear? You must|be re- deemed by|
w: suf- fi- cient|doth your spir- it cry? You must|be re- deemed by|
 [EG]2 [GB]>[EG] [DF]2 [EG]>[DF] | E6 ||"^Refrain" [GB]2 | [GB]2 [EG]>[FA] [GB]3 [GB] | %11
w: blood. You must be re- deemed,|you|be|re- deemed, You must be|
w: blood. * * * * *||||
w: blood. * * * * *||||
 [Ec]2 [EA]>[EB] [Ec]3 [Ec] | [EB]2 [EG]>[GB] [Ge]2 [GB]>[EG] | (D2 D>D D2) [FA]2 | %14
w: re- deemed by the blood;|O trust and be- lieve, sal-|va- * * * tion|
w: |||
w: |||
 [EG]2 [EG]>[EA] [EB]3 [EB] | [Ec]2 [Ad]>[Ad] [Ge]3 E | [EG]2 [GB]>[EG] [DF]2 [EG]>[DF] | E6 |] %18
w: ceive, You must be re-|deemed by the blood. *|||
w: ||||
w: ||||
V:2
 E x | x5 EE x | x7 E | x4 E2 x2 | x8 | x8 | x7 E | x8 | E6 || x2 | x8 | x8 | x8 | F6 x2 | x8 | %15
w: life|sweet peace?|deemed|that|||the||must|||||re-||
w: press|ior near?|deemed|rise|||the|||||||||
w: seek|shall die?|deemed|all|||the|||||||||
 x7 E | x8 | E6 |] %18
w: |||
w: |||
w: |||
V:3
 [E,G,][E,A,] | [E,B,]2 [E,B,]>[E,A,] [E,A,][E,G,][E,G,][E,B,] | [E,G,]2 [E,A,]2 [E,G,]3 [E,G,] | %3
w: ~ ~|~ ~ ~ ~ ~ ~ ~|~ ~ ~ ~|
 [E,B,]2 [E,B,]>[B,,A,] [E,G,]2 [E,B,]>[E,B,] | [B,,B,]6 [E,B,][E,B,] | %5
w: ~ ~ ~ ~ ~ ~|~ ~ ~|
 [E,B,]2 [E,B,]>[E,B,] [E,B,][E,B,][E,B,][E,E] | [A,,E]2 [A,,E]2 [E,E]3 [E,G,] | %7
w: ~ ~ ~ ~ ~ ~ ~|~ ~ ~ ~|
 [E,B,]2 [E,B,]>[E,B,] [B,,B,]2 [B,,B,]>[B,,A,] | [E,G,]6 || [E,B,]2 | %10
w: ~ ~ ~ ~ ~ ~|~|~|
 [E,E]2 [E,B,]>[E,B,] [E,E]3 [E,B,] | [A,,A,]2 [A,,C]>[A,,C] [A,,A,]3 A, | %12
w: ~ ~ ~ ~ ~|~ ~ ~ ~ ~|
 [E,G,]2 [E,B,]>[E,E] [E,B,]2 [E,B,]>[E,B,] | B,2 B,>B, B,2 [B,,B,]2 | %14
w: ~ ~ ~ be re- deemed|by the blood * *|
 [E,B,]2 [E,B,]>[F,B,] [G,B,]3 [G,B,] | A,2 [F,B,]>[F,B,] [E,B,]3 [E,G,] | %16
w: ||
 [E,B,]2 [E,B,]>[E,B,] [B,,B,]2 [B,,B,]>[B,,A,] | [E,G,]6 |] %18
w: ||
V:4
 x2 | x8 | x8 | x8 | x8 | x8 | x8 | x8 | x6 || x2 | x8 | x7 A, | x8 | B,,6 x2 | x8 | A,2 x6 | x8 | %17
w: |||||||||||~||||||
 x6 |] %18
w: |

